icons/14x14_mail_filled.svg

<svg xmlns="http://www.w3.org/2000/svg" width="14" height="14" viewBox="0 0 14 14">
  <path fill-rule="evenodd" d="M3,2 L11,2 C12.1045695,2 13,2.8954305 13,4 L13,10 C13,11.1045695 12.1045695,12 11,12 L3,12 C1.8954305,12 1,11.1045695 1,10 L1,4 C1,2.8954305 1.8954305,2 3,2 Z M4.43028742,4 L3,4 L3,5.06855194 L6.44710478,8.1521478 C6.78077999,8.45063582 7.2859415,8.44910451 7.61780096,8.14859903 L11,5.08594914 L11,4 L9.59207073,4 L7.0269129,6.32280249 L4.43028742,4 Z"/>
</svg>

<svg width="14" height="14" fill="none" xmlns="http://www.w3.org/2000/svg"><path fill-rule="evenodd" clip-rule="evenodd" d="M3 2h8a2 2 0 0 1 2 2v6a2 2 0 0 1-2 2H3a2 2 0 0 1-2-2V4a2 2 0 0 1 2-2Zm1.43 2H3v1.069l3.447 3.083a.875.875 0 0 0 1.17-.003L11 5.086V4H9.592L7.027 6.323 4.43 4Z" fill="#000"/></svg>
